svgs/twidere.svg

<svg width="192" height="192" viewBox="0 0 192 192" fill="none" xmlns="http://www.w3.org/2000/svg"><path fill-rule="evenodd" clip-rule="evenodd" d="M34.487 48 43 56.381 51.442 48H34.487Zm31.523 2.444 14.57 14.408-10.77 10.89-3.715 3.53-14.561-14.455L66.01 50.444ZM37.02 67.33 18.262 48.864C13.376 44.032 16.983 36 23.567 36h41.798c1.977 0 3.886.776 5.305 2.178l21.536 21.296a7.51 7.51 0 0 1 .032 10.654l-3.858 3.9h80.053c6.583 0 10.191 8.033 5.305 12.864l-42.285 41.812 14.595 14.432c4.886 4.832 1.279 12.864-5.305 12.864H74.452a7.54 7.54 0 0 1-5.953-2.909l-29.986-38.545c-1.517-1.951-1.497-4.101-1.493-4.563V67.33Zm11.996 11.894v16.77l8.463-8.369-8.463-8.4ZM68.01 94.086l-17.077 16.886 17.077 21.951V94.086ZM80.005 144h49.853l-11.161-11.035L80.005 94.46V144Zm8.536-57.972 34.393 34.226 34.613-34.226H88.541Z" fill="#000"/></svg>

<svg id="vector" xmlns="http://www.w3.org/2000/svg" width="192" height="192" viewBox="0 0 192 192"><path fill="#000000" d="M 34.487 48 L 43 56.381 L 51.442 48 L 34.487 48 Z M 66.01 50.444 L 80.581 64.852 L 69.809 75.742 L 66.094 79.272 L 51.533 64.817 L 66.01 50.444 Z M 37.02 67.33 L 18.262 48.864 C 13.376 44.032 16.983 36 23.567 36 L 65.365 36 C 67.342 36 69.251 36.776 70.67 38.178 L 92.206 59.474 C 95.172 62.406 95.182 67.183 92.238 70.128 L 88.38 74.028 L 168.433 74.028 C 175.016 74.028 178.624 82.061 173.738 86.892 L 131.453 128.704 L 146.048 143.136 C 150.934 147.968 147.327 156 140.743 156 L 74.452 156 C 72.14 156 69.936 154.939 68.499 153.091 L 38.513 114.546 C 36.996 112.595 37.016 110.445 37.02 109.983 C 37.02 109.964 37.02 109.947 37.02 109.933 L 37.02 67.33 Z M 49.016 79.224 L 49.016 95.994 L 57.479 87.625 L 49.016 79.224 Z M 68.01 94.086 L 50.933 110.972 L 68.01 132.923 L 68.01 94.086 Z M 80.005 144 L 129.858 144 L 118.697 132.965 L 80.005 94.46 L 80.005 144 Z M 88.541 86.028 L 122.934 120.254 L 157.547 86.028 L 88.541 86.028 Z" fill-rule="evenodd" id="path_0"/></svg>
